X: 2005
T: The Galliard.
%R: galliard
B: Henry Playford "Apollo's Banquet", London 1687 (5th Edition)
F: https://archive.org/details/apollosbanquetco01rugg
Z: 2017 John Chambers <jc:trillian.mit.edu>
M: C|
L: 1/8
K: Gm
% - - - - - - - - - -
d2 |\
g4 ^f3(e/f/) | g3a b3c' |\
a6 g2 | f3d e3c |\
f2d2 c3B | B6 :|
|: G2 |\
A3B c3A | f3g =e3d |\
d6 a2 | b4 ^f3g |\
d3b a3g | g6 |]
% - - - - - - - - - -

%%sep 1 1 500
%%sep 1 1 500

